material/.icons/material/doorbell-video.svg

<?xml version="1.0" encoding="UTF-8"?><!DOCTYPE svg PUBLIC "-//W3C//DTD SVG 1.1//EN" "http://www.w3.org/Graphics/SVG/1.1/DTD/svg11.dtd"><svg xmlns="http://www.w3.org/2000/svg" xmlns:xlink="http://www.w3.org/1999/xlink" version="1.1" id="mdi-doorbell-video" width="24" height="24" viewBox="0 0 24 24"><path d="M14 15C14 16.11 13.11 17 12 17S10 16.11 10 15 10.9 13 12 13 14 13.9 14 15M18 4V20C18 21.1 17.11 22 16 22H8C6.9 22 6 21.11 6 20V4C6 2.9 6.9 2 8 2H16C17.11 2 18 2.9 18 4M10.5 7C10.5 7.83 11.17 8.5 12 8.5S13.5 7.83 13.5 7 12.83 5.5 12 5.5 10.5 6.17 10.5 7M16 10H8V20H16V10Z" /></svg>

<svg xmlns="http://www.w3.org/2000/svg" viewBox="0 0 24 24"><path d="M14 15c0 1.11-.89 2-2 2s-2-.89-2-2 .9-2 2-2 2 .9 2 2m4-11v16a2 2 0 01-2 2H8a2 2 0 01-2-2V4c0-1.1.9-2 2-2h8a2 2 0 012 2m-7.5 3c0 .83.67 1.5 1.5 1.5s1.5-.67 1.5-1.5-.67-1.5-1.5-1.5-1.5.67-1.5 1.5m5.5 3H8v10h8V10z"/></svg>
